X:1
T:The Lord himself, the mighty Lord
T:Joseph Stephenson
T:p40, Church Harmony Sacred to Devotion, 4th ed. London: [c1763-1771]
T:This edition by Edmund Gooch released into the public domain, June 2013.
T:The Lord himself, the mighty Lord
T:Ps. 23d.
C:Joseph Stephenson
Z:p40, Church Harmony
Z:Sacred to Devotion, 4th ed.
Z:London: [c1763-1771]
%%score [ 1 2 3 4 ]
L:1/8
M:3/4
K:Bb
V:1 treble nm="SOPRANO" snm="S."
V:2 treble nm="ALTO" snm="A."
V:3 treble-8 transpose=-12 nm="TENOR" snm="T."
V:4 bass nm="BASS" snm="B."
V:1
 B2 | d4 B2 | c4 A2 | (B3 c) c2 | d4 B2 | c4 (fe) | d2 (Tc3 B) | A4 c2 | d4 e2 | c4 B2 | %10
w: He|does my|wand- ’ring|soul _ re-|claim, And|to his _|end- less _|praise, In-|struct with|hum- ble|
w: The|Lord him-|self, the|migh- * ty|Lord Vouch-|safes to _|be my _|guide: The|shep- herd|by whose|
w: In|ten- der|grass he|makes _ me|feed, And|gent- ly _|there re- *|pose, Then|leads me|to cool|
 (G3 A) B2 | A4 A2 | (Bc de) d2 | (c2 B2) A2 | B4 |] %15
w: zeal _ to|walk In|his _ _ _ most|right- * eous|ways.|
w: con- * stant|care My|wants _ _ _ are|all _ sup-|plied.|
w: shades, _ and|where Re-|fresh- * * * ing|wa- * ter|flows.|
V:2
 D2 | F4 F2 | F4 (F>E) | (DE FG) F2 | F4 F2 | F4 F2 | F4 =E2 | F4 F2 | B4 G2 | F4 D2 | %10
w: He|does my|wand- ’ring _|soul _ _ _ re-|claim, And|to his|end- less|praise, In-|struct with|hum- ble|
w: The|Lord him-|self, the _|migh- * * * ty|Lord Vouch-|safes to|be my|guide: The|shep- herd|by whose|
w: In|ten- der|grass he _|makes _ _ _ me|feed, And|gent- ly|there re-|pose, Then|leads me|to cool|
 (B,2 C2) (DE) | F4 F2 | F4 B2 | G2 F4 | F4 |] %15
w: zeal _ to _|walk In|his most|right- eous|ways.|
w: con- * stant _|care My|wants are|all sup-|plied.|
w: shades, _ and _|where Re-|fresh- ing|wa- ter|flows.|
V:3
 F2 | (B3 c) d2 | e4 (d>e) | (fe dc) A2 | B4 d2 | c4 (Bc) | (B>A) TG4 | F4 A2 | (B>c d2) (cB) | %9
w: He|does _ my|wand- ’ring _|soul _ _ _ re-|claim, And|to his _|end- * less|praise, In-|struct _ _ with _|
w: The|Lord _ him-|self, the _|migh- * * * ty|Lord Vouch-|safes to _|be _ my|guide: The|shep- * * herd _|
w: In|ten- * der|grass he _|makes _ _ _ me|feed, And|gent- ly _|there _ re-|pose, Then|leads _ _ me _|
 A4 B2 | (d2 c2) B2 | c4 F2 | (BA Bc) d2 | e2 Tc4 | B4 |] %15
w: hum- ble|zeal _ to|walk In|his _ _ _ most|right- eous|ways.|
w: by whose|con- * stant|care My|wants _ _ _ are|all sup-|plied.|
w: to cool|shades, _ and|where Re-|fresh- * * * ing|wa- ter|flows.|
V:4
 B,,2 | B,,4 B,2 | A,4 F,2 | (B,,C, D,E,) F,2 | B,,4 B,2 | F,4 (B,,A,,) | B,,2 C,4 | F,4 F,2 | %8
w: He|does my|wand- ’ring|soul _ _ _ re-|claim, And|to his _|end- less|praise, In-|
w: The|Lord him-|self, the|migh- * * * ty|Lord Vouch-|safes to _|be my|guide: The|
w: In|ten- der|grass he|makes _ _ _ me|feed, And|gent- ly _|there re-|pose, Then|
"^Notes: The alto part is notated in the alto clef in the source. The alto E§ on the third beat of bar 6 is marked with a # sign inthe source. The opening words of the first verse underlaid here are given in the source, as ‘The Ld. him self &c.’, with thetitle 'Ps. 23d' also indicating the text: this and three other stanzas from the text have been underlaid editorially." B,,4 C,2 | %9
w: struct with|
w: shep- herd|
w: leads me|
 F,4 G,2 | (B,2 A,2) G,2 | F,4 F,2 | (D,3 C,) B,,2 | E,2 F,4 | B,,4 |] %15
w: hum- ble|zeal _ to|walk In|his _ most|right- eous|ways.|
w: by whose|con- * stant|care My|wants _ are|all sup-|plied.|
w: to cool|shades, _ and|where Re-|fresh- * ing|wa- ter|flows.|

